!!!!SEGMENT: pl-kk--kk-i-329--005_costanzi-giovanni-battista--confitebor-memor-erit.krn
!!!cenid: 17xx:1924
!!!COM: Costanzi, Giovanni Battista
!!!COM-rismid: pe20000434
!!!CDT: 1704-1778
!!!CNT: Italian
!!!OPR: Confitebor
!!!OTL: Memor erit
!!!OMV: 005
!!!PDT:
!!!AGN: Sacred
!!!SMS-siglum: PL-Kk
!!!SMS-shelfmark: Kk.I.329
!!!SMS-shelfwork: 001-005 M
!!!SMS-variant:
!!!SMS-altvar:
!!!NIFC-rismid: 1001143621
!!!URL-scan: http://repozytorium.nifc.pl/skany/pl-kk-nut--i-329
!!!ONB-nifc: UWAGA: części Confitebor: 1. Confitebor, 2. Magna opera, 3. Confessio, 4. Memoriam fecit, 5. Memor erit, 6. Fidelia omnia, 7. Redemptionem, 8. Sanctum, 9. Intellectus bonus, 10. Gloria Patri, 11. Sicut erat, 12. Amen
**kern	**fba	**kern	**text	**kern	**text	**kern	**text	**kern	**text	**kern	**kern	**text	**kern	**text
*part8	*	*part7	*part7	*part6	*part6	*part5	*part5	*part4	*part4	*part3	*part2	*part2	*part1	*part1
*	*	*group2	*	*group2	*	*group2	*	*group2	*	*group1	*group1	*	*group1	*
*staff8	*	*staff7	*staff7	*staff6	*staff6	*staff5	*staff5	*staff4	*staff4	*staff3	*staff2	*staff2	*staff1	*staff1
*Iorgan	*	*Iempty	*	*Itenor	*	*Ialto	*	*Ivox	*	*Iempty	*Ialto	*	*Ivox	*
*I"[Organo]	*	*I"Baſso di Ripieno	*	*I"Tenore di Ripieno	*	*I"Alto di Ripieno	*	*I"Canto di Ripieno	*	*I"Baſso di Concerto	*I"Alto di Concerto	*	*I"Canto di Concerto	*
*I'org	*	*I'B rip	*	*I'T rip	*	*I'A rip	*	*I'S rip	*	*I'B conc	*I'A conc	*	*I'S conc	*
*clefF4	*	*clefF4	*	*clefC4	*	*clefC3	*	*clefC1	*	*clefF4	*clefC3	*	*clefC1	*
*k[]	*	*k[]	*	*k[]	*	*k[]	*	*k[]	*	*k[]	*k[]	*	*k[]	*
*a:	*	*a:	*	*a:	*	*a:	*	*a:	*	*a:	*a:	*	*a:	*
*M3/4	*	*M3/4	*	*M3/4	*	*M3/4	*	*M3/4	*	*M3/4	*M3/4	*	*M3/4	*
=1	=1	=1	=1	=1	=1	=1	=1	=1	=1	=1	=1	=1	=1	=1
*2\right	*	*2\right	*	*2\right	*	*2\right	*	*2\right	*	*	*2\right	*	*2\right	*
!LO:TX:t=P:problem:nazwa instrumentu wzięta ze strony tytułowej	!	!	!	!	!	!	!	!	!	!	!	!	!	!
!LO:TX:a:t=Tutti	!	!LO:TX:a:t=Tutti	!	!LO:TX:a:t=Tutti	!	!LO:TX:a:t=Tutti	!	!LO:TX:a:t=Tutti	!	!LO:TX:a:t=Memor erit Tacet	!LO:TX:a:t=a 2o	!	!LO:TX:a:t=Siegue a 2.o	!
!LO:TX:b:t=Memor erit	!	!	!	!	!	!	!	!	!	!	!LO:TX:b:t=9	!	!LO:TX:b:t=9	!
!	!	!	!	!	!	!	!	!	!	!	!LO:N:vis=00	!	!LO:N:vis=00	!
2A\	#3	2A\	Me-	2e\	Me-	2a\	Me-	2cc#X\	Me-	2.ryy	0.r	.	0.r	.
4d\	4	4d\	-mor	4f\	-mor	4a\	-mor	4dd\	-mor	.	.	.	.	.
.	3	.	.	.	.	.	.	.	.	.	.	.	.	.
=2	=2	=2	=2	=2	=2	=2	=2	=2	=2	=2	=2	=2	=2	=2
4c#X\	.	4c#X\	e-	4e\	e-	4a\	e-	4ee\	e-	2.ryy	.	.	.	.
4A\	.	4A\	-rit	4e\	-rit	4a\	-rit	4cc#X\	-rit	.	.	.	.	.
4d\	.	4d\	in	4f\	in	4a\	in	4dd\	in	.	.	.	.	.
=3	=3	=3	=3	=3	=3	=3	=3	=3	=3	=3	=3	=3	=3	=3
4G\	7	4G\	Sae-	4f\	Sae-	2b-X\	Sae-	4dd\	Sae-	2.ryy	.	.	.	.
.	n3	.	.	.	.	.	.	.	.	.	.	.	.	.
2cn\	.	2cn\	.	2e\	.	.	.	[2ccn\	.	.	.	.	.	.
.	.	.	.	.	.	4g\	.	.	.	.	.	.	.	.
!	!	!LO:LB:g=original	!	!	!	!	!	!	!	!	!	!	!	!
=4	=4	=4	=4	=4	=4	=4	=4	=4	=4	=4	=4	=4	=4	=4
4F\	.	4F\	.	4e\	.	2a\	.	4cc\]	.	2.ryy	.	.	.	.
2B-X\	7	2B-X\	.	[2d\	.	.	.	[2b-X\	.	.	.	.	.	.
.	.	.	.	.	.	4f\	.	.	.	.	.	.	.	.
!	!	!	!	!LO:LB:g=original	!	!	!	!LO:LB:g=original	!	!	!	!	!	!
=5	=5	=5	=5	=5	=5	=5	=5	=5	=5	=5	=5	=5	=5	=5
!	!	!	!	!	!	!	!	!	!	!	!LO:N:vis=00	!	!LO:N:vis=00	!
4E\	.	4E\	.	4d\]	.	2g\	.	4b-\]	.	2.ryy	0.r	.	0.r	.
2A\	#3	2A\	.	2c#X\	.	.	.	[2a\	.	.	.	.	.	.
.	.	.	.	.	.	4e\	.	.	.	.	.	.	.	.
!LO:LB:g=original	!	!	!	!	!	!LO:LB:g=original	!	!	!	!	!	!	!	!
=6	=6	=6	=6	=6	=6	=6	=6	=6	=6	=6	=6	=6	=6	=6
4.F\	.	4.F\	.	4.d\	.	4.f\	.	4.a\]	.	2.ryy	.	.	.	.
8E\	#6	8E\	-cu-	8e\	-cu-	8g\	-cu-	8cc#X\	-cu-	.	.	.	.	.
4D\	.	4D\	-lum	4f\	-lum	4a\	-lum	4dd\	-lum	.	.	.	.	.
=7	=7	=7	=7	=7	=7	=7	=7	=7	=7	=7	=7	=7	=7	=7
4d\	5	4d\	te-	2f\	te-	4a\	te-	2dd\	te-	2.ryy	.	.	.	.
4.Bn\	#6	4.Bn\	.	.	.	2bn\	-sta-	.	.	.	.	.	.	.
.	.	.	.	4f\	-sta-	.	.	4dd\	-sta-	.	.	.	.	.
8A\	7	8A\	-sta-	.	.	.	.	.	.	.	.	.	.	.
!	!	!LO:LB:g=original	!	!	!	!	!	!	!	!	!	!	!	!
=8	=8	=8	=8	=8	=8	=8	=8	=8	=8	=8	=8	=8	=8	=8
4G#X\	5	(4G#X\	-men-	2e\	-men-	4b\	-men-	2dd\	-men-	2.ryy	.	.	.	.
4E\	7	4E\)	.	.	.	4g#X\	.	.	.	.	.	.	.	.
4A\	.	4A\	-ti	4e\	-ti	4a\	-ti	4ccn\	-ti	.	.	.	.	.
=9	=9	=9	=9	=9	=9	=9	=9	=9	=9	=9	=9	=9	=9	=9
4D\	.	4D\	-Su-	4f\	su-	8a\L	su-	4dd\	su-	2.ryy	2.r	.	2.r	.
.	.	.	.	.	.	8f#X\J	.	.	.	.	.	.	.	.
2E\	#3	2E\	.	2e\	.	2g#X\	-i	2b\	.	.	.	.	.	.
!	!	!	!	!LO:LB:g=original	!	!	!	!	!	!	!	!	!	!
=10	=10	=10	=10	=10	=10	=10	=10	=10	=10	=10	=10	=10	=10	=10
!LO:TX:a:t=a 2.e	!	!	!	!	!	!	!	!	!	!	!	!	!	!
4AA/	.	4AA/	-i	4e\	-i	4a\	.	2a\	-i	2.ryy	4cc\	Vir-	4ee\	Vir-
4r	.	4r	.	4r	.	4r	.	.	.	.	4b\	-tu-	4dd\	-tu-
4A\	.	4r	.	4r	.	4r	.	4r	.	.	4a\	-tum	4cc\	-tem
!	!	!	!	!	!	!LO:LB:g=original	!	!LO:LB:g=original	!	!	!	!	!	!
=11	=11	=11	=11	=11	=11	=11	=11	=11	=11	=11	=11	=11	=11	=11
!	!	!LO:TX:b:t=10.	!	!LO:TX:b:t=10.	!	!LO:TX:b:t=10.	!	!LO:TX:b:t=10.	!	!	!	!	!	!
.	.	.	.	.	.	.	.	.	.	.	8qqa/	.	8qqa/	.
!	!	!LO:N:vis=00	!	!LO:N:vis=00	!	!LO:N:vis=00	!	!LO:N:vis=00	!	!	!	!	!	!
4E\	#3	0.r	.	0.r	.	0.r	.	0.r	.	2.ryy	2g#X\	o-	2b\	o-
4D\	#4	.	.	.	.	.	.	.	.	.	.	.	.	.
4C\	.	.	.	.	.	.	.	.	.	.	4a\	-pe-	4cc\	-pe-
!LO:LB:g=original	!	!	!	!	!	!	!	!	!	!	!	!	!	!
=12	=12	=12	=12	=12	=12	=12	=12	=12	=12	=12	=12	=12	=12	=12
4BB/	7	.	.	.	.	.	.	.	.	2.ryy	8a\L	-rum	4dd\	-rum
.	.	.	.	.	.	.	.	.	.	.	8b\J	.	.	.
.	.	.	.	.	.	.	.	.	.	.	.	.	8qqa/	.
2E\	.	.	.	.	.	.	.	.	.	.	2g#X\	ſu-	2b\	ſu-
=13	=13	=13	=13	=13	=13	=13	=13	=13	=13	=13	=13	=13	=13	=13
4A\	.	.	.	.	.	.	.	.	.	2.ryy	8a\L	-o-	8cc\L	-o-
.	.	.	.	.	.	.	.	.	.	.	8g\J	.	8b\J	.
4c\	.	.	.	.	.	.	.	.	.	.	4a\	-rum	4a\	-rum
4A\	.	.	.	.	.	.	.	.	.	.	4cc\	an-	4ee\	an-
!	!	!	!	!	!	!	!	!	!	!	!LO:LB:g=original	!	!LO:LB:g=original	!
=14	=14	=14	=14	=14	=14	=14	=14	=14	=14	=14	=14	=14	=14	=14
.	.	.	.	.	.	.	.	.	.	.	.	.	8qqee/	.
2d\	7	.	.	.	.	.	.	.	.	2.ryy	4cc\	-nun-	2ff\	-nun-
.	6	.	.	.	.	.	.	.	.	.	4b\	.	.	.
!	!	!	!	!	!	!	!	!	!	!	!LO:SIC:v:l:s=ti	!	!LO:SIC:v:l:s=ti	!
4G\	.	.	.	.	.	.	.	.	.	.	4b\	-ci-	4dd\	-ci-
=15	=15	=15	=15	=15	=15	=15	=15	=15	=15	=15	=15	=15	=15	=15
!	!	!LO:N:vis=00	!	!LO:N:vis=00	!	!LO:N:vis=00	!	!LO:N:vis=00	!	!	!	!	!	!
2c\	7	0.r	.	0.r	.	0.r	.	0.r	.	2.ryy	4b\	-a-	2ee\	-a-
.	6	.	.	.	.	.	.	.	.	.	4a\	.	.	.
4Fn\	.	.	.	.	.	.	.	.	.	.	4a\	-bit	4cc\	.
=16	=16	=16	=16	=16	=16	=16	=16	=16	=16	=16	=16	=16	=16	=16
.	.	.	.	.	.	.	.	.	.	.	.	.	8qqcc/	.
4B\	.	.	.	.	.	.	.	.	.	2.ryy	4a\	an-	2dd\	.
2E\	#3	.	.	.	.	.	.	.	.	.	4g#X\	-nun-	.	.
!	!	!	!	!	!	!	!	!	!	!	!LO:SIC:v:l:s=ti	!	!	!
.	.	.	.	.	.	.	.	.	.	.	4g#\	-ci-	4b\	.
=17	=17	=17	=17	=17	=17	=17	=17	=17	=17	=17	=17	=17	=17	=17
4A\	.	.	.	.	.	.	.	.	.	2.ryy	4a\	-a-	4cc\	.
4r	.	.	.	.	.	.	.	.	.	.	4b\	.	4dd\	.
4AA/	.	.	.	.	.	.	.	.	.	.	4cc\	-bit	4ee\	-bit
=18	=18	=18	=18	=18	=18	=18	=18	=18	=18	=18	=18	=18	=18	=18
4D\	6	.	.	.	.	.	.	.	.	2.ryy	4dd\	po-	4ff\	po-
4C\	.	.	.	.	.	.	.	.	.	.	4cc\	-pu-	4ee\	-pu-
4AA/	6	.	.	.	.	.	.	.	.	.	4b\	-lo	4dd\	-lo
!	!	!	!	!	!	!	!	!	!	!	!LO:LB:g=original	!	!LO:PB:g=original	!
=19	=19	=19	=19	=19	=19	=19	=19	=19	=19	=19	=19	=19	=19	=19
!	!	!LO:N:vis=0	!	!LO:N:vis=0	!	!LO:N:vis=0	!	!LO:N:vis=0	!	!	!	!	!	!
4C\	.	1.r	.	1.r	.	1.r	.	1.r	.	2.ryy	4cc\	po-	4.ee\	po-
8C\L	.	.	.	.	.	.	.	.	.	.	8c\L	-pu-	.	.
8D\	.	.	.	.	.	.	.	.	.	.	8d\J	.	8cc\	-pu-
8E\	.	.	.	.	.	.	.	.	.	.	8e\L	-lo	[4cc\	-lo
8F\J	.	.	.	.	.	.	.	.	.	.	8f\J	.	.	.
!LO:LB:g=original	!	!	!	!	!	!	!	!	!	!	!	!	!	!
=20	=20	=20	=20	=20	=20	=20	=20	=20	=20	=20	=20	=20	=20	=20
4G\	4	.	.	.	.	.	.	.	.	2.ryy	2.g\	ſu-	8cc\L]	.
.	.	.	.	.	.	.	.	.	.	.	.	.	8dd\J	.
4GG/	3	.	.	.	.	.	.	.	.	.	.	.	2dd\	ſu-
4GG/	.	.	.	.	.	.	.	.	.	.	.	.	.	.
!	!	!LO:PB:g=original	!	!	!	!	!	!	!	!	!	!	!	!
=21	=21	=21	=21	=21	=21	=21	=21	=21	=21	=21	=21	=21	=21	=21
!LO:TX:b:t=Tutti	!	!	!	!	!	!	!	!	!	!	!	!	!	!
4C/	.	4c\	ut	4e\	ut	4g\	ut	4cc\	ut	2.ryy	4c\	-o	4cc\	-o
2GG/	.	2G\	det	2d\	det	2g\	det	2b\	det	.	4r	.	4r	.
.	.	.	.	.	.	.	.	.	.	.	4r	.	4r	.
=22	=22	=22	=22	=22	=22	=22	=22	=22	=22	=22	=22	=22	=22	=22
!	!	!	!	!	!	!	!	!	!	!	!LO:TX:b:t=16.	!	!LO:TX:b:t=15.	!
!	!	!	!	!	!	!	!	!	!	!	!LO:N:vis=00	!	!LO:N:vis=00	!
2C/	.	4E\	il-	4e\	il-	4g\	il-	4b\	il-	2.ryy	0.r	.	0.r	.
.	.	4C/	-lis	4e\	-lis	4g\	-lis	4cc\	-lis	.	.	.	.	.
4c\	.	4c\	hae-	4e\	hae-	4g\	hae-	4cc\	hae-	.	.	.	.	.
=23	=23	=23	=23	=23	=23	=23	=23	=23	=23	=23	=23	=23	=23	=23
8.B\L	.	8.B\	-re-	8.d\	-re-	8.g\	-re-	8.dd\	-re-	2.ryy	.	.	.	.
!LO:TX:a:t=P:problem:dziwny znaczek jakby zamiast kropki po ósemce	!	!	!	!	!	!	!	!	!	!	!	!	!	!
16A\Jk	.	16A\	-di-	16d\	-di-	16g\	-di-	16cc\	-di-	.	.	.	.	.
4G\	.	4G\	-ta-	4d\	-ta-	4g\	-ta-	4b\	-ta-	.	.	.	.	.
4F\	.	4F\	-tem	4d\	-tem	4g\	-tem	4dd\	-tem	.	.	.	.	.
!	!	!	!	!LO:LB:g=original	!	!	!	!	!	!	!	!	!	!
=24	=24	=24	=24	=24	=24	=24	=24	=24	=24	=24	=24	=24	=24	=24
8.E\L	.	8.E/	Gen-	8.c\	gen-	8.g\	gen-	8.ee\	gen-	2.ryy	.	.	.	.
!LO:TX:a:t=P:problem:dziwny znaczek jakby zamiast kropki po ósemce	!	!	!	!	!	!	!	!	!	!	!	!	!	!
16D\Jk	.	16D/	-ti-	16d\	-ti-	16g\	-ti-	16ee\	-ti-	.	.	.	.	.
4C/	.	2C/	-um	2e\	-um	2g\	-um	2ee\	-um	.	.	.	.	.
4C/	.	.	.	.	.	.	.	.	.	.	.	.	.	.
!	!	!	!	!	!	!LO:LB:g=original	!	!LO:LB:g=original	!	!	!	!	!	!
=25	=25	=25	=25	=25	=25	=25	=25	=25	=25	=25	=25	=25	=25	=25
!	!	!	!	!LO:TX:b:t=1	!	!LO:TX:b:t=1	!	!	!	!	!	!	!	!
4C/	.	4c\	o-	2.r	.	2.r	.	4ee\	o-	2.ryy	.	.	.	.
8D/L	.	8d\L	-pe-	.	.	.	.	8ff\L	-pe-	.	.	.	.	.
8C/J	.	8c\J	.	.	.	.	.	8ee\J	.	.	.	.	.	.
4D/	.	4d\	-ra	.	.	.	.	4ff\	-ra	.	.	.	.	.
!LO:LB:g=original	!	!LO:LB:g=original	!	!	!	!	!	!	!	!	!	!	!	!
=26	=26	=26	=26	=26	=26	=26	=26	=26	=26	=26	=26	=26	=26	=26
!	!	!	!	!	!	!	!	!	!	!	!LO:N:vis=00	!	!LO:N:vis=00	!
4GG/	.	4G\	ma-	4B\	o-	4g\	o-	4dd\	ma-	2.ryy	0.r	.	0.r	.
!	!	!LO:SIC:v:l:s=nuum	!	!	!	!	!	!LO:SIC:v:l:s=nuum	!	!	!	!	!	!
4C/	.	2c\	-nu(m)	8c\L	-pe-	4g\	-pe-	2ee\	-num	.	.	.	.	.
.	.	.	.	8B\J	.	.	.	.	.	.	.	.	.	.
4C/	.	.	.	4c\	-ra	4g\	-ra	.	.	.	.	.	.	.
=27	=27	=27	=27	=27	=27	=27	=27	=27	=27	=27	=27	=27	=27	=27
4GG/	.	4F\	E-	4c\	ma-	4a\	ma-	4cc\	E-	2.ryy	.	.	.	.
!	!	!	!	!	!	!LO:SIC:v:l:s=nuum	!	!	!	!	!	!	!	!
4BB/	.	2B\	-jus	4B\	.	2b\	-num	2dd\	-jus	.	.	.	.	.
!	!	!	!	!LO:SIC:v:l:s=nuum	!	!	!	!	!	!	!	!	!	!
4BB/	.	.	.	4d\	-num	.	.	.	.	.	.	.	.	.
=28	=28	=28	=28	=28	=28	=28	=28	=28	=28	=28	=28	=28	=28	=28
4EE/	#3	4E\	o-	4e\	E-	4g#X\	e-	4b\	o-	2.ryy	.	.	.	.
4AA/	.	8A\L	-pe-	2e\	-jus	4a\	-jus	8cc\L	-pe-	.	.	.	.	.
.	.	8G#X\J	.	.	.	.	.	8b\J	.	.	.	.	.	.
4AA/	.	4A\	-ra	.	.	4a\	.	4cc\	-ra	.	.	.	.	.
!	!	!	!	!LO:PB:g=original	!	!	!	!	!	!	!	!	!	!
=29	=29	=29	=29	=29	=29	=29	=29	=29	=29	=29	=29	=29	=29	=29
4D\	4	4D\	ma-	4d\	ma-	2fn\	ma-	4a\	ma-	2.ryy	.	.	.	.
.	3	.	.	.	.	.	.	.	.	.	.	.	.	.
!	!	!LO:SIC:v:l:s=nuum	!	!LO:SIC:v:l:s=nuum	!	!	!	!LO:SIC:v:l:s=nuum	!	!	!	!	!	!
4G\	.	2G\	-nu(m)	2d\	-num	.	.	2b\	-num	.	.	.	.	.
!	!	!	!	!	!	!LO:SIC:v:l:s=nuum	!	!	!	!	!	!	!	!
4G\	.	.	.	.	.	4g\	-num	.	.	.	.	.	.	.
!	!	!	!	!	!	!LO:PB:g=original	!	!LO:LB:g=original	!	!	!	!	!	!
=30	=30	=30	=30	=30	=30	=30	=30	=30	=30	=30	=30	=30	=30	=30
!	!	!	!	!	!	!	!	!	!	!	!LO:N:vis=00	!	!LO:N:vis=00	!
4.E\	.	(4.E\	E-	4.c\	E-	4.g\	E-	4.cc\	E-	2.ryy	0.r	.	0.r	.
8D\	.	8D\	.	8d\	.	8f\	.	8b\	.	.	.	.	.	.
4C\	.	4C/)	-jus	4e\	-jus	4e\	-jus	4cc\	-jus	.	.	.	.	.
!	!	!LO:LB:g=original	!	!	!	!	!	!	!	!	!	!	!	!
=31	=31	=31	=31	=31	=31	=31	=31	=31	=31	=31	=31	=31	=31	=31
!	!	!	!	!LO:TX:b:t=2	!	!LO:TX:b:t=1	!	!	!	!	!	!	!	!
!	!	!	!	!LO:N:vis=0	!	!	!	!	!	!	!	!	!	!
[2.E\	#3	2.E\	Ve-	1.r	.	2.r	.	4ee\	Ve-	2.ryy	.	.	.	.
.	.	.	.	.	.	.	.	4b\	-ri-	.	.	.	.	.
.	6 4	.	.	.	.	.	.	4cc\	-tas	.	.	.	.	.
=32	=32	=32	=32	=32	=32	=32	=32	=32	=32	=32	=32	=32	=32	=32
2.E\_	.	2.E\	-ri-	.	.	4e\	Ve-	2f#X\	&	2.ryy	.	.	.	.
.	.	.	.	.	.	4B/	-ri-	.	.	.	.	.	.	.
.	.	.	.	.	.	4c/	-tas	4a\	ju-	.	.	.	.	.
=33	=33	=33	=33	=33	=33	=33	=33	=33	=33	=33	=33	=33	=33	=33
2.E\_	5 #3	2.E\	-tas	4e\	-Ve-	2G#X/	&	2b\	-di-	2.ryy	.	.	.	.
.	.	.	.	4B\	-ri-	.	.	.	.	.	.	.	.	.
.	6 4	.	.	4c\	-tas	4A/	ju-	4cc\	-ci-	.	.	.	.	.
=34	=34	=34	=34	=34	=34	=34	=34	=34	=34	=34	=34	=34	=34	=34
!	!	!	!	!	!	!	!	!	!	!	!LO:N:vis=00	!	!LO:N:vis=0	!
2.E\_	.	2E\	&	2G#X/	et	2B/	-di-	4b\	-um	2.ryy	0.r	.	1.r	.
.	.	.	.	.	.	.	.	4r	.	.	.	.	.	.
.	.	4E\	Ju-	4A/	Ju-	4A/	-ci-	4b\	&	.	.	.	.	.
!LO:LB:g=original	!	!	!	!LO:LB:g=original	!	!	!	!LO:PB:g=original	!	!	!	!	!	!
=35	=35	=35	=35	=35	=35	=35	=35	=35	=35	=35	=35	=35	=35	=35
!LO:TX:a:t=P:problem:brak zakończenia ligatury	!	!	!	!	!	!	!	!	!	!	!	!	!	!
4E\]	5 #3	4E\	-di-	2c\	-di-	4G#X/	-um	4b\	Ju-	2.ryy	.	.	.	.
4G#X\	.	4G#X\	.	.	.	4e\	et	4ee\	-di-	.	.	.	.	.
4E\	.	4E\	-ci-	4B\	-ci-	4e\	ju-	4dd\	-ci-	.	.	.	.	.
!	!	!	!	!	!	!LO:LB:g=original	!	!	!	!	!	!	!	!
=36	=36	=36	=36	=36	=36	=36	=36	=36	=36	=36	=36	=36	=36	=36
4A\	.	2A\	-um	2A\	-um-	4.e\	-di-	2.cc\	-um.	2.ryy	.	.	2.r	.
4A\	.	.	.	.	.	.	.	.	.	.	.	.	.	.
.	.	.	.	.	.	8d\	-ci-	.	.	.	.	.	.	.
4A\	.	4r	.	4r	.	4c\	-um	.	.	.	.	.	.	.
!	!	!LO:LB:g=original	!	!	!	!	!	!	!	!	!	!	!	!
=37	=37	=37	=37	=37	=37	=37	=37	=37	=37	=37	=37	=37	=37	=37
*	*below	*	*	*	*	*	*	*	*	*	*	*	*	*
!LO:TX:a:t=Soli	!	!LO:TX:b:t=16.	!	!LO:TX:b:t=16	!	!LO:TX:b:t=16.	!	!LO:TX:b:t=16.	!	!	!	!	!	!
!	!	!LO:N:vis=00	!	!LO:N:vis=00	!	!LO:N:vis=00	!	!LO:N:vis=00	!	!	!	!	!	!
[2.E\	5 #3	0.r	.	0.r	.	0.r	.	0.r	.	2.ryy	.	.	4ee\	O-
.	.	.	.	.	.	.	.	.	.	.	.	.	4b\	-pe-
.	6 4	.	.	.	.	.	.	.	.	.	.	.	4cc\	-ra
!	!	!	!	!	!	!	!	!	!	!	!	!	!LO:LB:g=original	!
=38	=38	=38	=38	=38	=38	=38	=38	=38	=38	=38	=38	=38	=38	=38
2.E\_	.	.	.	.	.	.	.	.	.	2.ryy	4e\	o-	2g#X\	ma-
.	.	.	.	.	.	.	.	.	.	.	4B/	-pe-	.	.
!	!	!	!	!	!	!	!	!	!	!	!	!	!LO:SIC:v:l:s=nuum	!
.	.	.	.	.	.	.	.	.	.	.	4c/	-ra	4a\	-num
=39	=39	=39	=39	=39	=39	=39	=39	=39	=39	=39	=39	=39	=39	=39
2.E\_	#3	.	.	.	.	.	.	.	.	2.ryy	2G#X/	ma-	(4ee\	ma-
.	.	.	.	.	.	.	.	.	.	.	.	.	4b\)	.
!	!	!	!	!	!	!	!	!	!	!	!LO:SIC:v:l:s=nuum	!	!LO:SIC:v:l:s=nuum	!
.	4	.	.	.	.	.	.	.	.	.	4A/	-nu(m)	4cc\	-nu(m)
!	!	!	!	!	!	!	!	!	!	!	!LO:LB:g=original	!	!	!
=40	=40	=40	=40	=40	=40	=40	=40	=40	=40	=40	=40	=40	=40	=40
2.E\]	#3	.	.	.	.	.	.	.	.	2.ryy	4e\	ma-	2g#X\	e-
.	.	.	.	.	.	.	.	.	.	.	4B/	.	.	.
!	!	!	!	!	!	!	!	!	!	!	!LO:SIC:v:l:s=nuum	!	!	!
.	6 4	.	.	.	.	.	.	.	.	.	4c/	-nu(m)	4a\	-ius
=41	=41	=41	=41	=41	=41	=41	=41	=41	=41	=41	=41	=41	=41	=41
*	*above	*	*	*	*	*	*	*	*	*	*	*	*	*
!	!	!	!	!	!	!	!	!	!	!	!	!	!LO:TX:b:t=2	!
!	!	!LO:N:vis=00	!	!LO:N:vis=00	!	!LO:N:vis=00	!	!LO:N:vis=00	!	!	!	!	!LO:N:vis=0	!
4E\	#3	0.r	.	0.r	.	0.r	.	0.r	.	2.ryy	2G#X/	e-	1.r	.
4D\	.	.	.	.	.	.	.	.	.	.	.	.	.	.
4C\	6	.	.	.	.	.	.	.	.	.	4A/	-ius	.	.
=42	=42	=42	=42	=42	=42	=42	=42	=42	=42	=42	=42	=42	=42	=42
4C/	.	.	.	.	.	.	.	.	.	2.ryy	4a\	ve-	.	.
4BB/	.	.	.	.	.	.	.	.	.	.	2a\	-ri-	.	.
4AA/	.	.	.	.	.	.	.	.	.	.	.	.	.	.
=43	=43	=43	=43	=43	=43	=43	=43	=43	=43	=43	=43	=43	=43	=43
4D\	6 5	.	.	.	.	.	.	.	.	2.ryy	2.a\	-tas	4b\	ve-
4E\	.	.	.	.	.	.	.	.	.	.	.	.	4cc\	-ri-
4Fn\	.	.	.	.	.	.	.	.	.	.	.	.	4dd\	-tas
!LO:PB:g=original	!	!	!	!	!	!	!	!	!	!	!	!	!	!
=44	=44	=44	=44	=44	=44	=44	=44	=44	=44	=44	=44	=44	=44	=44
4D\	.	.	.	.	.	.	.	.	.	2.ryy	2.a\	et	4b\	ve-
4E\	.	.	.	.	.	.	.	.	.	.	.	.	4cc\	-ri-
4F\	.	.	.	.	.	.	.	.	.	.	.	.	4dd\	-tas
!	!	!	!	!	!	!	!	!	!	!	!	!	!LO:LB:g=original	!
=45	=45	=45	=45	=45	=45	=45	=45	=45	=45	=45	=45	=45	=45	=45
!	!	!LO:N:vis=00	!	!LO:N:vis=00	!	!LO:N:vis=00	!	!LO:N:vis=00	!	!	!	!	!	!
2E\	#3	0.r	.	0.r	.	0.r	.	0.r	.	2.ryy	2.g#X\	iu-	16ee\KL	et
.	.	.	.	.	.	.	.	.	.	.	.	.	8.ff\J	.
.	.	.	.	.	.	.	.	.	.	.	.	.	16ee\KL	iu-
.	.	.	.	.	.	.	.	.	.	.	.	.	8.cc\J	.
4E\	.	.	.	.	.	.	.	.	.	.	.	.	16dd\KL	.
.	.	.	.	.	.	.	.	.	.	.	.	.	8.b\J	.
!	!	!	!	!	!	!	!	!	!	!	!LO:LB:g=original	!	!	!
=46	=46	=46	=46	=46	=46	=46	=46	=46	=46	=46	=46	=46	=46	=46
4A\	.	.	.	.	.	.	.	.	.	2.ryy	8a\L	-di-	8cc\L	-di-
.	.	.	.	.	.	.	.	.	.	.	8b\J	.	8dd\J	.
4E\	#3	.	.	.	.	.	.	.	.	.	2g#X\	-ci-	2b\	-ci-
4E\	.	.	.	.	.	.	.	.	.	.	.	.	.	.
=47	=47	=47	=47	=47	=47	=47	=47	=47	=47	=47	=47	=47	=47	=47
4AA/	.	.	.	.	.	.	.	.	.	2.ryy	4a\	-um	4a\	-um
4F\	6	.	.	.	.	.	.	.	.	.	4r	.	2dd\	ve-
4F\	.	.	.	.	.	.	.	.	.	.	4r	.	.	.
=48	=48	=48	=48	=48	=48	=48	=48	=48	=48	=48	=48	=48	=48	=48
4F#X\	#6	.	.	.	.	.	.	.	.	2.ryy	2a\	ve-	2.dd#X\	-ri-
4F#\	.	.	.	.	.	.	.	.	.	.	.	.	.	.
4F#\	.	.	.	.	.	.	.	.	.	.	4a\	-ri-	.	.
=49	=49	=49	=49	=49	=49	=49	=49	=49	=49	=49	=49	=49	=49	=49
*	*below	*	*	*	*	*	*	*	*	*	*	*	*	*
!	!	!LO:N:vis=00	!	!LO:N:vis=00	!	!LO:N:vis=00	!	!LO:N:vis=00	!	!	!	!	!	!
2.E;\	#3	0.r	.	0.r	.	0.r	.	0.r	.	2.ryy	2.g#X;\	-tas	2.ee\	-tas
!LO:LB:g=original	!	!	!	!	!	!	!	!	!	!	!	!	!LO:LB:g=original	!
=50	=50	=50	=50	=50	=50	=50	=50	=50	=50	=50	=50	=50	=50	=50
*	*above	*	*	*	*	*	*	*	*	*	*	*	*	*
2E\	#3	.	.	.	.	.	.	.	.	2.ryy	4b\	et	(4ddn\	et
.	.	.	.	.	.	.	.	.	.	.	4a\	.	4cc\)	.
!	!	!	!	!	!	!	!	!	!	!	!LO:TX:t=P:problem:# above	!	!	!
4E\	.	.	.	.	.	.	.	.	.	.	4g#X\	iu-	4b\	iu-
=51	=51	=51	=51	=51	=51	=51	=51	=51	=51	=51	=51	=51	=51	=51
4A\	.	.	.	.	.	.	.	.	.	2.ryy	8a\L	-di-	8cc\L	-di-
.	.	.	.	.	.	.	.	.	.	.	8b\J	.	8dd\J	.
4E\	#3	.	.	.	.	.	.	.	.	.	2g#X\	-ci-	2b\	-ci-
4EE/	.	.	.	.	.	.	.	.	.	.	.	.	.	.
=52	=52	=52	=52	=52	=52	=52	=52	=52	=52	=52	=52	=52	=52	=52
2.AA/	.	.	.	.	.	.	.	.	.	2.ryy	2.a\	-um.	2.a\	-um
==	==	==	==	==	==	==	==	==	==	==	==	==	==	==
*-	*-	*-	*-	*-	*-	*-	*-	*-	*-	*-	*-	*-	*-	*-
!!!system-decoration: [g1][g2]s8
!!!ENC: Marta Lawrence
!!!END: 2021-02-14
!!!ENC: Kamil Watkowski
!!!END: 2021-02-09
